svgs/emoji_pop.svg

<svg width="192" height="192" viewBox="0 0 192 192" fill="none" xmlns="http://www.w3.org/2000/svg">
<path d="M84.1489 80.9145C79.1244 79.0304 73.6825 78 68 78C42.5949 78 22 98.5949 22 124C22 149.405 42.5949 170 68 170C93.4051 170 114 149.405 114 124C114 120.293 113.561 116.688 112.733 113.234" stroke="black" stroke-width="12" stroke-linecap="round"/>
<path d="M134.105 115L149.72 113.432C153.611 113.121 156.7 110.032 157.011 106.141L158.018 93.523C158.151 91.8558 158.806 90.273 159.891 89.0001L168.101 79.3657C170.633 76.3951 170.633 72.0259 168.101 69.0553L159.891 59.421C158.806 58.148 158.151 56.5652 158.018 54.898L157.011 42.28C156.7 38.3893 153.611 35.2998 149.72 34.9894L137.102 33.9824C135.435 33.8494 133.852 33.1938 132.579 32.109L122.945 23.8987C119.974 21.3671 115.605 21.3671 112.634 23.8987L103 32.109C101.727 33.1938 100.144 33.8494 98.477 33.9824L85.8589 34.9894C81.9683 35.2998 78.8788 38.3893 78.5683 42.28L77 57.8947" stroke="black" stroke-width="12" stroke-linecap="round" stroke-linejoin="round"/>
<path d="M109.912 57.5589C111.373 54.5657 114.05 52.3302 117.354 51.3442C120.658 50.3582 124.318 50.7025 127.529 52.3014C130.741 53.9002 133.241 56.6227 134.479 59.8698C135.717 63.1169 135.592 66.6227 134.131 69.616C130.276 77.5162 118.205 70.8552 114.763 77.909M101.49 94.3821L100.88 95.6331" stroke="black" stroke-width="12" stroke-linecap="round"/>
<path d="M55.1878 120.024C56.2039 125.452 55.2673 130.183 53.0959 130.589C50.9245 130.995 48.3405 126.924 47.3244 121.496C46.3083 116.067 47.2449 111.337 49.4163 110.93C51.5877 110.524 54.1717 114.595 55.1878 120.024Z" stroke="black" stroke-width="8"/>
<path d="M84.6757 114.504C85.6918 119.933 84.7552 124.663 82.5838 125.07C80.4124 125.476 77.8284 121.405 76.8123 115.976C75.7962 110.548 76.7328 105.817 78.9042 105.411C81.0756 105.005 83.6596 109.076 84.6757 114.504Z" stroke="black" stroke-width="8"/>
</svg>

<svg width="192" height="192" fill="none" xmlns="http://www.w3.org/2000/svg"><path d="M84.149 80.915A45.9 45.9 0 0 0 68 78c-25.405 0-46 20.595-46 46s20.595 46 46 46 46-20.595 46-46c0-3.707-.439-7.312-1.267-10.766" stroke="#000" stroke-width="12" stroke-linecap="round"/><path d="m134.105 115 15.615-1.568a7.95 7.95 0 0 0 7.291-7.291l1.007-12.618A7.946 7.946 0 0 1 159.891 89l8.21-9.634a7.947 7.947 0 0 0 0-10.31l-8.21-9.635a7.946 7.946 0 0 1-1.873-4.523l-1.007-12.618a7.948 7.948 0 0 0-7.291-7.29l-12.618-1.008a7.949 7.949 0 0 1-4.523-1.873l-9.634-8.21a7.949 7.949 0 0 0-10.311 0L103 32.109a7.949 7.949 0 0 1-4.523 1.873L85.859 34.99c-3.89.31-6.98 3.4-7.29 7.291L77 57.895" stroke="#000" stroke-width="12" stroke-linecap="round" stroke-linejoin="round"/><path d="M113.763 77.91c3.442-7.055 15.513-.394 19.368-8.294 1.461-2.993 1.586-6.499.348-9.746-1.238-3.247-3.738-5.97-6.95-7.569-3.211-1.598-6.871-1.943-10.175-.957-2.603.777-4.817 2.33-6.354 4.417m-8.51 38.621-.61 1.251" stroke="#000" stroke-width="12" stroke-linecap="round"/><path d="M55.188 120.024c1.016 5.428.08 10.159-2.092 10.565-2.172.406-4.756-3.665-5.772-9.093-1.016-5.429-.08-10.159 2.092-10.566 2.172-.406 4.756 3.665 5.772 9.094Zm29.488-5.52c1.016 5.429.08 10.159-2.092 10.566-2.171.406-4.755-3.665-5.772-9.094-1.016-5.428-.079-10.159 2.092-10.565 2.172-.406 4.756 3.665 5.772 9.093Z" stroke="#000" stroke-width="8"/></svg>
